SVG_Azure_All/Function App Service Editor.svg

<?xml version="1.0" encoding="UTF-8" standalone="no"?>
<!-- Generated by Microsoft Visio, SVG Export Function App Service Editor.svg Page-1 -->

<svg
   xmlns:dc="http://purl.org/dc/elements/1.1/"
   xmlns:cc="http://creativecommons.org/ns#"
   xmlns:rdf="http://www.w3.org/1999/02/22-rdf-syntax-ns#"
   xmlns:svg="http://www.w3.org/2000/svg"
   xmlns="http://www.w3.org/2000/svg"
   xmlns:sodipodi="http://sodipodi.sourceforge.net/DTD/sodipodi-0.dtd"
   xmlns:inkscape="http://www.inkscape.org/namespaces/inkscape"
   width="0.76796216in"
   height="0.54726273in"
   viewBox="0 0 55.293474 39.402946"
   xml:space="preserve"
   class="st5"
   version="1.1"
   id="svg61"
   sodipodi:docname="Function App Service Editor.svg"
   style="font-size:12px;overflow:visible;color-interpolation-filters:sRGB;fill:none;fill-rule:evenodd;stroke-linecap:square;stroke-miterlimit:3"
   inkscape:version="0.92.5 (2060ec1f9f, 2020-04-08)"><metadata
   id="metadata65"><rdf:RDF><cc:Work
       rdf:about=""><dc:format>image/svg+xml</dc:format><dc:type
         rdf:resource="http://purl.org/dc/dcmitype/StillImage" /></cc:Work></rdf:RDF></metadata><sodipodi:namedview
   pagecolor="#ffffff"
   bordercolor="#666666"
   borderopacity="1"
   objecttolerance="10"
   gridtolerance="10"
   guidetolerance="10"
   inkscape:pageopacity="0"
   inkscape:pageshadow="2"
   inkscape:window-width="640"
   inkscape:window-height="480"
   id="namedview63"
   showgrid="false"
   inkscape:zoom="1.645625"
   inkscape:cx="36.8683"
   inkscape:cy="26.16479"
   inkscape:window-x="0"
   inkscape:window-y="0"
   inkscape:window-maximized="0"
   inkscape:current-layer="svg61" />
	<style
   type="text/css"
   id="style2">
	<![CDATA[
		.st1 {fill:url(#grad0-6);stroke:none;stroke-linecap:butt;stroke-width:34}
		.st2 {fill:#50e6ff;stroke:none;stroke-linecap:butt;stroke-width:34}
		.st3 {fill:url(#grad0-12);stroke:none;stroke-linecap:butt;stroke-width:34}
		.st4 {fill:url(#grad0-18);stroke:none;stroke-linecap:butt;stroke-width:34}
		.st5 {fill:none;fill-rule:evenodd;font-size:12px;overflow:visible;stroke-linecap:square;stroke-miterlimit:3}
	]]>
	</style>

	<defs
   id="Patterns_And_Gradients">
		<linearGradient
   id="grad0-6"
   x1="-0.0061791573"
   y1="38.887145"
   x2="9.5849047"
   y2="38.887145"
   gradientTransform="scale(0.45070871,2.2187279)"
   gradientUnits="userSpaceOnUse">
			<stop
   offset="0"
   stop-color="#0078d4"
   stop-opacity="1"
   id="stop4" />
			<stop
   offset="0.325"
   stop-color="#1b84dc"
   stop-opacity="1"
   id="stop6" />
			<stop
   offset="1"
   stop-color="#5ea0ef"
   stop-opacity="1"
   id="stop8" />
		</linearGradient>
		<linearGradient
   id="grad0-12"
   x1="-5.3983168e-06"
   y1="38.887158"
   x2="9.5910812"
   y2="38.887158"
   gradientTransform="scale(0.45070883,2.2187273)"
   gradientUnits="userSpaceOnUse">
			<stop
   offset="0"
   stop-color="#0078d4"
   stop-opacity="1"
   id="stop11" />
			<stop
   offset="0.325"
   stop-color="#1b84dc"
   stop-opacity="1"
   id="stop13" />
			<stop
   offset="1"
   stop-color="#5ea0ef"
   stop-opacity="1"
   id="stop15" />
		</linearGradient>
		<linearGradient
   id="grad0-18"
   x1="-0.00064681213"
   y1="22.041915"
   x2="13.211479"
   y2="22.041915"
   gradientTransform="scale(0.32776133,3.0510006)"
   gradientUnits="userSpaceOnUse">
			<stop
   offset="0"
   stop-color="#0078d4"
   stop-opacity="1"
   id="stop18" />
			<stop
   offset="0.325"
   stop-color="#1b84dc"
   stop-opacity="1"
   id="stop20" />
			<stop
   offset="1"
   stop-color="#5ea0ef"
   stop-opacity="1"
   id="stop22" />
		</linearGradient>
	</defs>
	<g
   id="g59"
   transform="translate(-33.998176,-33.999761)">
		<title
   id="title26">Page-1</title>
		<g
   id="group4383-1"
   transform="translate(33.3162,-34.0157)">
			<title
   id="title28">Function App Service Editor</title>
			<g
   id="group4384-2">
				<title
   id="title30">Sheet.4384</title>
				<g
   id="shape4385-3"
   transform="rotate(-44.919,2.4022278,87.088283)">
					<title
   id="title32">Sheet.4385</title>
					<path
   d="m 1.69,86.28 h 2.63 v 20.45 a 0.842785,0.828593 0 0 1 -0.842785,0.82859 L 0.84,107.56 a 0.842785,0.828593 0 0 1 -0.842785,-0.82859 L 0,87.93 a 1.68557,1.65719 0 0 1 1.69,-1.65 z"
   class="st1"
   id="path34"
   inkscape:connector-curvature="0"
   style="fill:url(#grad0-6);stroke:none;stroke-width:34;stroke-linecap:butt" />
				</g>
				<g
   id="shape4386-7"
   transform="translate(0.68383,-16.3663)">
					<title
   id="title37">Sheet.4386</title>
					<path
   d="m 2.35,107.55 -1.86,-1.83 a 1.68557,1.65719 0 0 1 0,-2.34 L 14.25,89.89 a 0.842785,0.828593 0 0 1 1.1911,0 l 1.8689,1.84 a 0.842785,0.828593 0 0 1 0,1.17104 L 2.35,107.56 Z"
   class="st2"
   id="path39"
   inkscape:connector-curvature="0"
   style="fill:#50e6ff;stroke:none;stroke-width:34;stroke-linecap:butt" />
				</g>
				<g
   id="shape4387-9"
   transform="rotate(-135.081,24.283171,86.192848)">
					<title
   id="title42">Sheet.4387</title>
					<path
   d="m 0.84,86.28 h 2.64 a 0.842785,0.828593 0 0 1 0.842785,0.828593 L 4.32,107.56 H 1.69 A 1.68557,1.65719 0 0 1 0,105.9 V 87.11 a 0.842785,0.828593 0 0 1 0.842785,-0.828593 z"
   class="st3"
   id="path44"
   inkscape:connector-curvature="0"
   style="fill:url(#grad0-12);stroke:none;stroke-width:34;stroke-linecap:butt" />
				</g>
				<g
   id="shape4388-13"
   transform="translate(38.4436,-16.3541)">
					<title
   id="title47">Sheet.4388</title>
					<path
   d="M 0.24,91.73 2.1,89.89 a 0.842785,0.828593 0 0 1 1.1911,0 L 17.04,103.38 a 1.68557,1.65719 0 0 1 0,2.34 L 15.19,107.56 0.25,92.91 a 0.842785,0.828593 0 0 1 0,-1.17409 z"
   class="st2"
   id="path49"
   inkscape:connector-curvature="0"
   style="fill:#50e6ff;stroke:none;stroke-width:34;stroke-linecap:butt" />
				</g>
				<g
   id="shape4389-15"
   transform="rotate(17.752,14.382909,172.1905)">
					<title
   id="title52">Sheet.4389</title>
					<path
   d="m 0,106.97 a 0.600226,0.590119 -180 0 0 0.600212,0.5901 L 3.73,107.56 a 0.600226,0.590119 -180 0 0 0.600212,-0.5901 L 4.33,67.84 A 0.600226,0.590119 -180 0 0 3.729788,67.249895 L 0.6,67.25 a 0.600226,0.590119 -180 0 0 -0.600212,0.590105 z"
   class="st4"
   id="path54"
   inkscape:connector-curvature="0"
   style="fill:url(#grad0-18);stroke:none;stroke-width:34;stroke-linecap:butt" />
				</g>
			</g>
		</g>
	</g>
</svg>

<?xml version="1.0" encoding="UTF-8" standalone="no"?>
<!DOCTYPE svg PUBLIC "-//W3C//DTD SVG 1.1//EN" "http://www.w3.org/Graphics/SVG/1.1/DTD/svg11.dtd">
<!-- Generated by Microsoft Visio, SVG Export Function App Service Editor.svg Page-1 -->
<svg xmlns="http://www.w3.org/2000/svg" xmlns:xlink="http://www.w3.org/1999/xlink" xmlns:ev="http://www.w3.org/2001/xml-events"
		width="1.71248in" height="1.49386in" viewBox="0 0 123.299 107.558" xml:space="preserve" color-interpolation-filters="sRGB"
		class="st5">
	<style type="text/css">
	<![CDATA[
		.st1 {fill:url(#grad0-6);stroke:none;stroke-linecap:butt;stroke-width:34}
		.st2 {fill:#50e6ff;stroke:none;stroke-linecap:butt;stroke-width:34}
		.st3 {fill:url(#grad0-12);stroke:none;stroke-linecap:butt;stroke-width:34}
		.st4 {fill:url(#grad0-18);stroke:none;stroke-linecap:butt;stroke-width:34}
		.st5 {fill:none;fill-rule:evenodd;font-size:12px;overflow:visible;stroke-linecap:square;stroke-miterlimit:3}
	]]>
	</style>

	<defs id="Patterns_And_Gradients">
		<linearGradient id="grad0-6" x1="0" y1="0" x2="1" y2="0" gradientTransform="rotate(145.74015287657 0.5 0.5)">
			<stop offset="0" stop-color="#0078d4" stop-opacity="1"/>
			<stop offset="0.325" stop-color="#1b84dc" stop-opacity="1"/>
			<stop offset="1" stop-color="#5ea0ef" stop-opacity="1"/>
		</linearGradient>
		<linearGradient id="grad0-12" x1="0" y1="0" x2="1" y2="0" gradientTransform="rotate(235.94706708213 0.5 0.5)">
			<stop offset="0" stop-color="#0078d4" stop-opacity="1"/>
			<stop offset="0.325" stop-color="#1b84dc" stop-opacity="1"/>
			<stop offset="1" stop-color="#5ea0ef" stop-opacity="1"/>
		</linearGradient>
		<linearGradient id="grad0-18" x1="0" y1="0" x2="1" y2="0" gradientTransform="rotate(-40.067754547539 0.5 0.5)">
			<stop offset="0" stop-color="#0078d4" stop-opacity="1"/>
			<stop offset="0.325" stop-color="#1b84dc" stop-opacity="1"/>
			<stop offset="1" stop-color="#5ea0ef" stop-opacity="1"/>
		</linearGradient>
	</defs>
	<g>
		<title>Page-1</title>
		<g id="group4286-1" transform="translate(33.3162,-34.0157)">
			<title>Function App Service Editor</title>
			<g id="group4287-2">
				<title>Sheet.4287</title>
				<g id="shape4288-3" transform="translate(-60.7924,27.1168) rotate(-44.919)">
					<title>Sheet.4288</title>
					<path d="M1.69 86.28 L4.32 86.28 L4.32 106.73 a0.842785 0.828593 0 0 1 -0.842785 0.828593 L0.84 107.56 a0.842785
								 0.828593 0 0 1 -0.842785 -0.828593 L0 87.93 A1.68557 1.65719 0 0 1 1.69 86.28 Z" class="st1"/>
				</g>
				<g id="shape4289-7" transform="translate(0.68383,-16.3663)">
					<title>Sheet.4289</title>
					<path d="M2.35 107.55 L0.49 105.72 A1.68557 1.65719 0 0 1 0.49 103.38 L14.25 89.89 a0.842785 0.828593 0 0 1 1.1911
								 2.84217E-14 L17.31 91.73 a0.842785 0.828593 0 0 1 -1.77636E-14 1.17104 L2.35 107.56 L2.35 107.55
								 Z" class="st2"/>
				</g>
				<g id="shape4290-9" transform="translate(-19.3831,164.373) rotate(-135.081)">
					<title>Sheet.4290</title>
					<path d="M0.84 86.28 L3.48 86.28 a0.842785 0.828593 0 0 1 0.842785 0.828593 L4.32 107.56 L1.69 107.56 A1.68557
								 1.65719 0 0 1 0 105.9 L0 87.11 a0.842785 0.828593 0 0 1 0.842785 -0.828593 Z" class="st3"/>
				</g>
				<g id="shape4291-13" transform="translate(38.4436,-16.3541)">
					<title>Sheet.4291</title>
					<path d="M0.24 91.73 L2.1 89.89 a0.842785 0.828593 0 0 1 1.1911 1.42109E-14 L17.04 103.38 A1.68557 1.65719 0
								 0 1 17.04 105.72 L15.19 107.56 L0.25 92.91 a0.842785 0.828593 0 0 1 -7.21645E-15 -1.17409 L0.24
								 91.73 Z" class="st2"/>
				</g>
				<g id="shape4292-15" transform="translate(53.1853,3.81351) rotate(17.752)">
					<title>Sheet.4292</title>
					<path d="M0 106.97 a0.600226 0.590119 -180 0 0 0.600212 0.590105 L3.73 107.56 a0.600226 0.590119 -180 0 0 0.600212
								 -0.590105 L4.33 67.84 a0.600226 0.590119 -180 0 0 -0.600212 -0.590105 L0.6 67.25 a0.600226 0.590119
								 -180 0 0 -0.600212 0.590105 L0 106.97 Z" class="st4"/>
				</g>
			</g>
		</g>
	</g>
</svg>
